build/cards/PaymentsMasterGBR.svg

<svg xmlns="http://www.w3.org/2000/svg" fill="none" viewBox="0 0 40 40" focusable="false"><path fill="none" d="M0 0H40V40H0z"/><rect width="38" height="28" x="1" y="6" fill="#37383B" rx="4"/><path fill="#FFF" d="M21.3095 13.0103C22.3598 12.939 23.5123 13.2363 24.2542 13.9517C24.6348 14.3187 24.6458 14.9247 24.2788 15.3052C23.9119 15.6858 23.3059 15.6968 22.9253 15.3298C22.6768 15.0902 22.1136 14.8746 21.4392 14.9204C20.7904 14.9644 20.2388 15.2369 19.9312 15.7054C19.5637 16.2651 19.4567 16.8464 19.4654 17.6684C19.4694 18.0422 19.4964 18.4389 19.5279 18.9014L19.541 19.0941C19.5532 19.2756 19.5654 19.4647 19.5763 19.6612L21.9435 19.6612C22.4722 19.6612 22.9008 20.0898 22.9008 20.6184C22.9008 21.1471 22.4722 21.5757 21.9435 21.5757L19.5856 21.5757C19.4789 22.8707 19.0749 23.9924 18.5443 24.8731C18.5009 24.9451 18.4564 25.0159 18.4108 25.0855L24.3703 25.0855C24.899 25.0855 25.3276 25.514 25.3276 26.0427C25.3276 26.5714 24.899 27 24.3703 27L15.9575 27C15.489 27 15.0894 26.661 15.013 26.1989C14.9366 25.7367 15.2059 25.2872 15.6494 25.1364C15.9147 25.0463 16.4349 24.6645 16.9044 23.8852C17.2678 23.282 17.5628 22.4985 17.6626 21.5757L16.0157 21.5757C15.487 21.5757 15.0585 21.1471 15.0585 20.6184C15.0585 20.0898 15.487 19.6612 16.0157 19.6612L17.6587 19.6612C17.65 19.5131 17.6405 19.3671 17.6308 19.2226L17.6179 19.033C17.5868 18.5782 17.5557 18.1217 17.5511 17.6887C17.5403 16.6749 17.6708 15.6599 18.3308 14.6546C19.0508 13.5581 20.2334 13.0834 21.3095 13.0103Z"/></svg>

<svg xmlns="http://www.w3.org/2000/svg" fill="none" viewBox="0 0 40 40" focusable="false"><path fill="none" d="M0 0h40v40H0z"/><rect width="38" height="28" x="1" y="6" fill="#35383F" rx="4"/><path fill="#FFF" d="M21.3 13.01c1.05-.08 2.21.22 2.95.94.38.36.39.97.02 1.35a.95.95 0 0 1-1.35.02c-.25-.23-.81-.45-1.49-.4-.64.04-1.2.31-1.5.78-.37.56-.48 1.14-.47 1.96 0 .38.03.77.06 1.24l.02.19.03.57h2.37c.53 0 .96.42.96.95s-.43.96-.96.96h-2.36c-.11 1.3-.51 2.42-1.04 3.3-.04.07-.09.14-.13.21h5.96c.52 0 .95.43.95.96s-.43.95-.95.95l-8.42.01c-.47 0-.87-.34-.94-.81a.95.95 0 0 1 .63-1.06c.27-.09.79-.47 1.26-1.25.36-.6.66-1.39.76-2.31h-1.65a.96.96 0 0 1-.96-.96c0-.53.43-.95.96-.95h1.64c0-.15-.01-.3-.02-.44l-.02-.19c-.03-.46-.06-.91-.06-1.35-.01-1.01.12-2.03.78-3.03.72-1.1 1.9-1.57 2.97-1.64"/></svg>
